X: 29701
T: November
R: reel
M: 4/4
K: Adorian
EAcA ~B3c|dedc BAGD|EAcA ~B3A|GA=FA ~E3D|
EAcA ~B3c|dedc BAGD|EAcA ~B3A|GEBE A4|
EAcA ~B3c|dedc BAGD|EAcA ~B3A|GA=FA GA=FA|
EAcA ~B3c|dedc BAGD|EAcA ~B3A|GEBE A4|
ABcA ~B3d|eged BAGE|ABcA ~B3d|eged ~e2~e2|
ABcA ~B3d|eged BAGE|ABcA ~B3A|GEBE A~A3|
ABcA ~B3d|eged BAGE|ABcA ~B3d|egeg ^g~a3|
ABcA ~B3d|eged BAGE|bage dBAG|DEGB A4||

